svgs/sharp-solid/starfighter.svg

<svg xmlns="http://www.w3.org/2000/svg" viewBox="0 0 640 512"><!--! Font Awesome Pro 6.6.0 by @fontawesome - https://fontawesome.com License - https://fontawesome.com/license (Commercial License) Copyright 2024 Fonticons, Inc. --><path d="M352 0l32 256 0 224-128 0 0-224L288 0l64 0zM288 256l0 64 64 0 0-64c0-17.7-14.3-32-32-32s-32 14.3-32 32zM72 72l0 24 0 24 24 0 0 48-24 0 0 184 56 0 0-64 96 0 0 64 0 64 0 32 0 32 0 32-64 0 0-32 0-12.8L72 432l0 16 0 24-48 0 0-24 0-280L0 168l0-48 24 0 0-24 0-24 48 0zm544 0l0 24 0 24 24 0 0 48-24 0 0 280 0 24-48 0 0-24 0-16-88 35.2 0 12.8 0 32-64 0 0-32 0-32 0-32 0-64 0-64 96 0 0 64 56 0 0-184-24 0 0-48 24 0 0-24 0-24 48 0z"/></svg>

<svg xmlns="http://www.w3.org/2000/svg" viewBox="0 0 640 512"><!--! Font Awesome Pro 6.4.2 by @fontawesome - https://fontawesome.com License - https://fontawesome.com/license (Commercial License) Copyright 2023 Fonticons, Inc. --><path d="M352 0l32 256V480H256V256L288 0h64zM288 256v64h64V256c0-17.7-14.3-32-32-32s-32 14.3-32 32zM72 72V96v24H96v48H72V352h56V288h96v64 64 32 32 32H160V480 467.2L72 432v16 24H24V448 168H0V120H24V96 72H72zm544 0V96v24h24v48H616V448v24H568V448 432l-88 35.2V480v32H416V480 448 416 352 288h96v64h56V168H544V120h24V96 72h48z"/></svg>
